!!!ONB: MCCC : IJB0066_05 : Extracted Monophonic Melody
!!!COM: Bach, Johann Sebastian
!!!OPR: Cello Suite No.4
!!!OMV: 5
!!!SCT: BWV 1010
!!!ODT: 1717///
**kern
*thru
*Icello
*>A
*clefF4
*k[b-e-a-]
*E-:
*M2/2
16E-
16F
16G
16A-
=1
4B-
8c
8A-
4B-
8c
8G
=2
4A-
4F
4FF
16D
16E-
16F
16G
=3
4A-
8B-
8G
4A-
8B-
8F
=4
4G
4E-
4EE-
16E-
16F
16G
16A-
=5
4B-
16BB-
16C
16D
16E-
4F
4A-
=6
8A-
8G
8F
8E-
4F
16E-
16F
16G
16A-
=7
4B-
16BB-
16C
16D
16E-
4F
4A-
=8
8A-
8G
8F
8E-
4F
16F
16G
16A
16B-
=9
4c
16A
16B-
16c
16d
4e-
16F
16G
16A
16B-
=10
4c
16A
16B-
16c
16d
4e-
8d
8c
=11
8d
8B-
8G
8B-
8E-
8c
8F
8A
=12
4B-
4F
4BB-
*>A
*clefF4
*k[b-e-a-]
*E-:
*M2/2
16E-
16F
16G
16A-
=1
4B-
8c
8A-
4B-
8c
8G
=2
4A-
4F
4FF
16D
16E-
16F
16G
=3
4A-
8B-
8G
4A-
8B-
8F
=4
4G
4E-
4EE-
16E-
16F
16G
16A-
=5
4B-
16BB-
16C
16D
16E-
4F
4A-
=6
8A-
8G
8F
8E-
4F
16E-
16F
16G
16A-
=7
4B-
16BB-
16C
16D
16E-
4F
4A-
=8
8A-
8G
8F
8E-
4F
16F
16G
16A
16B-
=9
4c
16A
16B-
16c
16d
4e-
16F
16G
16A
16B-
=10
4c
16A
16B-
16c
16d
4e-
8d
8c
=11
8d
8B-
8G
8B-
8E-
8c
8F
8A
=12
4B-
4F
4BB-
*>B
16BB-
16C
16D
16E-
=13
4F
8G
8E-
4F
8B-
8F
=14
4G
4E-
4EE-
16A-
16G
16F
16E-
=15
4D
16F
16E-
16D
16C
4BB
16D
16C
16BB
16AA
=16
8GG
8D
8F
8B
4d
16G
16F
16E-
16D
=17
4E-
16CC
16DD
16EE-
16FF
4GG
16d
16c
16B
16A
=18
4B
16GG
16AA
16BB
16C
4D
16g
16f
16e-
16d
=19
4e-
16e-
16d
16c
16B
4c
16c
16B-
16A-
16G
=20
4A-
16A-
16G
16F
16E-
4D
8c
8B
=21
8c
8A-
8F
8A-
8D
8c
8G
8B
=22
4c
4GG
4CC
16C
16D
16E
16F
=23
4G
8A-
8F
4G
8c
8G
=24
8B-
8A-
8G
8F
8e-
8d
8c
8B-
=25
4e-
16E-
16F
16G
16A-
4B-
4c
=26
8E-
8D
8C
8D
4BB-
16BB-
16C
16D
16E-
=27
4F
16D
16E-
16F
16G
4A-
16BB-
16C
16D
16E-
=28
4F
16D
16E-
16F
16G
4A-
16E-
16F
16G
16A-
=29
4B-
16G
16A-
16B-
16c
4d-
16E-
16F
16G
16A-
=30
4B-
16G
16A-
16B-
16c
4d-
8c
8B-
=31
8c
8B-
8B-
8A-
8B-
8G
8GG
16G
16A-
=32
8B-
16G
16A-
8B-
16A-
16G
8A-
8F
8FF
8A-
=33
16G
16F
16E-
16D
8E-
8B-
16G
16F
16E-
16D
8E-
8e-
=34
16A-
16G
16F
16G
16A-
16G
16F
16G
16A-
16G
16F
16E-
16D
16C
16BB-
16AA-
=35
8GG
8E-
8c
8A-
4B-
8c
8G
=36
4A-
4F
4FF
16c
16B-
16A-
16G
=37
4F
16A-
16G
16F
16E-
4D
16F
16E-
16D
16C
=38
8BB-
8D
8F
8A-
4f
16e-
16d
16c
16B-
=39
4e-
16E-
16F
16G
16A-
4B-
4c
=40
8E-
8D
8C
8D
4BB-
16e-
16d
16c
16B-
=41
4e-
16E-
16F
16G
16A-
4B-
4c
=42
16d-
16c
8B-
4c
16B-
16A-
16B-
16A-
4G
=43
16A-
16G
8F
4G
16F
16E-
16F
16E-
4D
=44
8E-
8BB-
8GG
8BB-
4EE-
16BB-
16C
16D
16E-
=45
4F
16D
16E-
16F
16G
4A-
16BB-
16C
16D
16E-
=46
4F
16D
16E-
16F
16G
4A-
8G
8F
=47
8G
8B-
8e-
8G
8F
8E-
8BB-
8d
=48
2.e-
*>B
16BB-
16C
16D
16E-
=13
4F
8G
8E-
4F
8B-
8F
=14
4G
4E-
4EE-
16A-
16G
16F
16E-
=15
4D
16F
16E-
16D
16C
4BB
16D
16C
16BB
16AA
=16
8GG
8D
8F
8B
4d
16G
16F
16E-
16D
=17
4E-
16CC
16DD
16EE-
16FF
4GG
16d
16c
16B
16A
=18
4B
16GG
16AA
16BB
16C
4D
16g
16f
16e-
16d
=19
4e-
16e-
16d
16c
16B
4c
16c
16B-
16A-
16G
=20
4A-
16A-
16G
16F
16E-
4D
8c
8B
=21
8c
8A-
8F
8A-
8D
8c
8G
8B
=22
4c
4GG
4CC
16C
16D
16E
16F
=23
4G
8A-
8F
4G
8c
8G
=24
8B-
8A-
8G
8F
8e-
8d
8c
8B-
=25
4e-
16E-
16F
16G
16A-
4B-
4c
=26
8E-
8D
8C
8D
4BB-
16BB-
16C
16D
16E-
=27
4F
16D
16E-
16F
16G
4A-
16BB-
16C
16D
16E-
=28
4F
16D
16E-
16F
16G
4A-
16E-
16F
16G
16A-
=29
4B-
16G
16A-
16B-
16c
4d-
16E-
16F
16G
16A-
=30
4B-
16G
16A-
16B-
16c
4d-
8c
8B-
=31
8c
8B-
8B-
8A-
8B-
8G
8GG
16G
16A-
=32
8B-
16G
16A-
8B-
16A-
16G
8A-
8F
8FF
8A-
=33
16G
16F
16E-
16D
8E-
8B-
16G
16F
16E-
16D
8E-
8e-
=34
16A-
16G
16F
16G
16A-
16G
16F
16G
16A-
16G
16F
16E-
16D
16C
16BB-
16AA-
=35
8GG
8E-
8c
8A-
4B-
8c
8G
=36
4A-
4F
4FF
16c
16B-
16A-
16G
=37
4F
16A-
16G
16F
16E-
4D
16F
16E-
16D
16C
=38
8BB-
8D
8F
8A-
4f
16e-
16d
16c
16B-
=39
4e-
16E-
16F
16G
16A-
4B-
4c
=40
8E-
8D
8C
8D
4BB-
16e-
16d
16c
16B-
=41
4e-
16E-
16F
16G
16A-
4B-
4c
=42
16d-
16c
8B-
4c
16B-
16A-
16B-
16A-
4G
=43
16A-
16G
8F
4G
16F
16E-
16F
16E-
4D
=44
8E-
8BB-
8GG
8BB-
4EE-
16BB-
16C
16D
16E-
=45
4F
16D
16E-
16F
16G
4A-
16BB-
16C
16D
16E-
=46
4F
16D
16E-
16F
16G
4A-
8G
8F
=47
8G
8B-
8e-
8G
8F
8E-
8BB-
8d
=48
2.e-
==
*-
